X:71
T: BRAUCHT WEITER SIE WAS
N: F0169A
O: Europa, Mitteleuropa, Deutschland
N: Strophenvariante von F0169
R: Liebes - Lied
M: 3/8
L: 1/16
K: F
F2 | F2GFEF | G2z2
G2 | G2^FGA=B | c2z2
F2 | F2GABc | d4
dd | dcBABG | F4

@@@ Tune index: 5502
